swiss/communes/0102.svg

<?xml version="1.0" encoding="UTF-8" standalone="no"?>
<!-- Created with Inkscape (http://www.inkscape.org/) -->
<svg
   xmlns:svg="http://www.w3.org/2000/svg"
   xmlns="http://www.w3.org/2000/svg"
   version="1.0"
   width="239.90236"
   height="281.00818"
   id="svg2780">
  <defs
     id="defs2782" />
  <g
     transform="translate(-8.870574,-795.32384)"
     id="layer1">
    <path
       d="M 9.870574,796.32384 L 14.196063,978.00362 C 17.285696,1107.7748 240.35779,1107.7748 243.44743,978.00362 L 247.77293,796.32384 L 9.870574,796.32384 z"
       id="path5652"
       style="fill:#ffffff;fill-opacity:1;fill-rule:evenodd;stroke:none;stroke-width:2;stroke-linecap:butt;stroke-miterlimit:4;stroke-dashoffset:0;stroke-opacity:1" />
    <path
       d="M 0,-2.46875 L 4.3125,179.21875 C 6.9334996,289.30633 167.85432,306.00407 218.5,229.3125 L 0,-2.46875 z"
       transform="translate(9.870574,798.78023)"
       id="path4240"
       style="fill:#2764c7;fill-opacity:1;fill-rule:evenodd;stroke:#000000;stroke-width:1pt;stroke-linecap:butt;stroke-linejoin:miter;stroke-opacity:1" />
    <path
       d="M 62.771212,852.42873 L 194.87229,992.56336 L 144.22497,961.31543 L 128.82175,1017.3479 L 113.41853,961.31543 L 62.771212,992.56336 L 90.516537,938.41345 L 33.985403,922.49604 L 90.516537,906.57864 L 62.771212,852.42873 z"
       id="path4248"
       style="fill:#ffffff;fill-opacity:1;fill-rule:evenodd;stroke:#000000;stroke-width:1pt;stroke-linecap:butt;stroke-linejoin:miter;stroke-opacity:1" />
    <path
       d="M 194.87229,992.56336 L 62.771212,852.42873 L 113.41853,883.67666 L 128.82175,827.64427 L 144.22497,883.67666 L 194.87229,852.42873 L 167.12697,906.57864 L 223.6581,922.49604 L 167.12697,938.41345 L 194.87229,992.56336 z"
       id="path4246"
       style="fill:#2764c7;fill-opacity:1;fill-rule:evenodd;stroke:#000000;stroke-width:1pt;stroke-linecap:butt;stroke-linejoin:miter;stroke-opacity:1" />
    <path
       d="M 9.870574,796.32384 L 14.196063,978.00362 C 17.285696,1107.7748 240.35779,1107.7748 243.44743,978.00362 L 247.77293,796.32384 L 9.870574,796.32384 z"
       id="path4270"
       style="fill:none;fill-opacity:1;fill-rule:evenodd;stroke:#000000;stroke-width:2;stroke-linecap:butt;stroke-miterlimit:4;stroke-dashoffset:0;stroke-opacity:1" />
  </g>
</svg>

<svg xmlns="http://www.w3.org/2000/svg" version="1.0" width="239.902" height="281.008"><path d="m9.87 796.324 4.326 181.68c3.09 129.77 226.162 129.77 229.251 0l4.326-181.68H9.87z" style="fill:#fff;fill-opacity:1;fill-rule:evenodd;stroke:none;stroke-width:2;stroke-linecap:butt;stroke-miterlimit:4;stroke-dashoffset:0;stroke-opacity:1" transform="translate(-8.87 -795.324)"/><path d="M0-2.469 4.313 179.22c2.62 110.087 163.541 126.785 214.187 50.094L0-2.47z" transform="translate(1 3.456)" style="fill:#2764c7;fill-opacity:1;fill-rule:evenodd;stroke:#000;stroke-width:1pt;stroke-linecap:butt;stroke-linejoin:miter;stroke-opacity:1"/><path d="m62.771 852.429 132.101 140.134-50.647-31.248-15.403 56.033-15.403-56.033-50.648 31.248 27.746-54.15-56.532-15.917 56.532-15.917-27.746-54.15z" style="fill:#fff;fill-opacity:1;fill-rule:evenodd;stroke:#000;stroke-width:1pt;stroke-linecap:butt;stroke-linejoin:miter;stroke-opacity:1" transform="translate(-8.87 -795.324)"/><path d="M194.872 992.563 62.772 852.43l50.647 31.248 15.403-56.033 15.403 56.033 50.647-31.248-27.745 54.15 56.531 15.917-56.531 15.917 27.745 54.15z" style="fill:#2764c7;fill-opacity:1;fill-rule:evenodd;stroke:#000;stroke-width:1pt;stroke-linecap:butt;stroke-linejoin:miter;stroke-opacity:1" transform="translate(-8.87 -795.324)"/><path d="m9.87 796.324 4.326 181.68c3.09 129.77 226.162 129.77 229.251 0l4.326-181.68H9.87z" style="fill:none;fill-opacity:1;fill-rule:evenodd;stroke:#000;stroke-width:2;stroke-linecap:butt;stroke-miterlimit:4;stroke-dashoffset:0;stroke-opacity:1" transform="translate(-8.87 -795.324)"/></svg>
